lib/logo_tmp/nrk-logo-nrk-p1-title-below-on-dark.svg

<svg width="40" height="35" viewBox="0 0 40 35" fill="none" xmlns="http://www.w3.org/2000/svg">
<path d="M0 14.3334V0.334635H4.59339V14.3334H0ZM10.8428 2.56261L13.4844 14.3334H8.45737L5.30307 0.334635H8.12254C8.76907 0.326245 9.39641 0.554154 9.88691 0.975485C10.3782 1.37914 10.7158 1.93951 10.8428 2.56261ZM14.1744 14.3334V0.334635H18.7678V14.3334H14.1744ZM22.2372 5.65815C21.7422 5.66297 21.2552 5.53346 20.828 5.28349C20.4064 5.03984 20.0563 4.68965 19.8127 4.26806C19.5624 3.84075 19.4329 3.35359 19.4378 2.8584C19.4321 2.36623 19.5618 1.88197 19.8127 1.45853C20.0589 1.04152 20.4086 0.69514 20.828 0.45297C21.2553 0.203283 21.7423 0.0737975 22.2372 0.0783117C22.7292 0.0730128 23.2133 0.202614 23.6369 0.45297C24.0521 0.697262 24.3981 1.04335 24.6424 1.45853C24.893 1.88209 25.0226 2.36627 25.0172 2.8584C25.0218 3.35355 24.8923 3.84063 24.6424 4.26806C24.4007 4.6878 24.0542 5.03769 23.6369 5.28349C23.2133 5.53434 22.7289 5.66397 22.2366 5.65815H22.2372ZM25.7269 14.3334V0.334635H30.3207V14.3334H25.7269ZM36.136 7.98464C36.1489 7.99822 36.2475 8.15923 36.4317 8.46768C36.6159 8.77613 36.8558 9.1705 37.1513 9.6507C37.447 10.1307 37.759 10.64 38.0874 11.1787C38.4157 11.7174 38.7247 12.2268 39.0143 12.7068C39.3028 13.1868 39.6313 13.7289 40 14.3334H34.9531C34.6375 13.8207 34.3515 13.3574 34.0952 12.9434C33.8389 12.5293 33.5665 12.0824 33.2778 11.6026C32.9884 11.1233 32.7024 10.6567 32.4196 10.2027C32.1368 9.74882 31.8938 9.35124 31.6905 9.00993C31.4863 8.6684 31.3449 8.43834 31.2663 8.31982C31.0713 8.02571 30.9559 7.68604 30.9315 7.334C30.951 6.99612 31.0597 6.6695 31.2466 6.38733C31.3254 6.25588 31.47 6.02253 31.6803 5.68735C31.8906 5.35217 32.137 4.95459 32.4196 4.49454C32.7021 4.03449 32.9882 3.56457 33.2778 3.0848C33.5674 2.60503 33.8398 2.15481 34.0952 1.73419C34.3519 1.31401 34.6379 0.847381 34.9531 0.334315H40L36.0962 6.70278C35.9754 6.89186 35.9073 7.10977 35.8991 7.334C35.9121 7.56941 35.9942 7.79573 36.1353 7.98464H36.136Z" fill="white"/>
<path d="M9.50279 22.1489C9.26049 21.7749 8.94938 21.4503 8.58601 21.1924C8.18098 20.9089 7.73116 20.6956 7.25529 20.5615C6.6776 20.402 6.08007 20.3258 5.48085 20.3351H0V34.333H2.07013V29.3056H5.63857C6.44399 29.3178 7.2388 29.1208 7.94528 28.7338C8.62213 28.3586 9.18431 27.8065 9.57178 27.1366C9.98705 26.3972 10.1948 25.5593 10.1731 24.7116C10.1749 24.2535 10.1219 23.7968 10.0154 23.3512C9.91303 22.9246 9.73973 22.5182 9.50279 22.1489ZM7.66931 26.3976C7.40438 26.8133 7.01431 27.1343 6.55535 27.3144C5.99842 27.5251 5.40579 27.6256 4.81052 27.6101H2.07013V22.0503H5.08656C5.6627 22.0286 6.23615 22.1398 6.7624 22.3753C7.18103 22.5776 7.52326 22.9094 7.7383 23.3217C7.96612 23.784 8.07777 24.2949 8.0636 24.8102C8.08636 25.3661 7.94955 25.9169 7.66931 26.3976Z" fill="#8BB5EB"/>
<path d="M15.2794 20.3351C14.9638 20.4928 14.6647 20.6473 14.3821 20.7984C14.0995 20.9496 13.8236 21.0909 13.5543 21.2223C13.2845 21.3537 13.0116 21.4852 12.7358 21.6166C12.46 21.7481 12.1774 21.8663 11.8881 21.9715C11.5989 22.0771 11.2902 22.1821 10.9618 22.2866L11.3952 23.9624C11.7895 23.8441 12.1476 23.7258 12.4697 23.6075C12.7851 23.4922 13.0944 23.3606 13.3963 23.2132C13.6923 23.0687 13.988 22.9109 14.2835 22.74L14.2937 22.7342V34.3333H16.3438V20.3354L15.2794 20.3351Z" fill="#8BB5EB"/>
</svg>

<svg xmlns="http://www.w3.org/2000/svg" viewBox="0 0 40 35"><path fill="#fff" d="M0 14.333V.335h4.593v13.998H0Zm10.843-11.77 2.641 11.77H8.457L5.303.335h2.82a2.655 2.655 0 0 1 1.764.64c.491.404.829.965.956 1.588Zm3.331 11.77V.335h4.594v13.998h-4.594Zm8.063-8.675a2.738 2.738 0 0 1-1.409-.375 2.778 2.778 0 0 1-1.015-1.015 2.735 2.735 0 0 1-.375-1.41 2.685 2.685 0 0 1 .375-1.4A2.812 2.812 0 0 1 23.637.454c.415.244.761.59 1.005 1.006.251.423.38.907.375 1.4.005.495-.125.982-.375 1.41a2.8 2.8 0 0 1-1.005 1.014c-.424.251-.908.381-1.4.375Zm3.49 8.675V.335h4.594v13.998h-4.594Zm10.409-6.348c.013.013.111.174.296.483.184.308.424.703.72 1.183a384.573 384.573 0 0 1 1.862 3.056c.289.48.617 1.022.986 1.626h-5.047l-.858-1.39c-.256-.414-.529-.86-.817-1.34a118.3 118.3 0 0 0-.858-1.4 71.036 71.036 0 0 1-.73-1.193 21.112 21.112 0 0 0-.424-.69 2.04 2.04 0 0 1-.334-.986c.019-.338.128-.664.315-.947.078-.131.223-.364.433-.7a216.7 216.7 0 0 0 1.598-2.603l.817-1.35.858-1.4H40l-3.904 6.369c-.12.189-.189.407-.197.631.013.235.095.462.236.65h.001Z"/><path fill="#8BB5EB" d="M9.503 22.149a3.52 3.52 0 0 0-.917-.957 4.403 4.403 0 0 0-1.33-.63 6.3 6.3 0 0 0-1.775-.227H0v13.998h2.07v-5.027H5.64c.805.012 1.6-.185 2.306-.572a4.271 4.271 0 0 0 1.627-1.597c.415-.74.623-1.578.601-2.425a5.755 5.755 0 0 0-.158-1.36 3.92 3.92 0 0 0-.512-1.203Zm-1.834 4.249a2.33 2.33 0 0 1-1.114.916c-.557.211-1.15.312-1.744.296H2.07v-5.56h3.016c.576-.021 1.15.09 1.675.325.419.203.761.534.976.947.228.462.34.973.326 1.488a2.915 2.915 0 0 1-.395 1.588ZM15.28 20.335a36.63 36.63 0 0 0-.898.463c-.282.152-.558.293-.828.424-.27.132-.542.263-.818.395-.276.131-.559.25-.848.354-.29.106-.598.211-.926.316l.433 1.675c.395-.118.753-.236 1.075-.354.315-.116.624-.247.926-.395.296-.144.592-.302.887-.473l.01-.006v11.6h2.05V20.334H15.28Z"/></svg>
